X:1
T:Title
%%score ( 1 2 ) ( 3 4 ) 5
L:1/8
Q:1/4=120
M:2/4
K:A
V:1 treble nm="Picked Bass, Soprano Voice"
V:2 treble 
V:3 treble nm="Picked Bass, Tenor Voice"
V:4 treble 
V:5 bass nm="Picked Bass, Baritone Voice"
V:1
 Ac .e2 | .ee .A2 | AB .c2 | c.e e2 | cB A2 | (3:2:4z/ A/ z A- [EA]2 | Ac e2- | e2 z2 | cB A2 | %9
 c.e .e2 | ef e2 | ec B2 | AB .c2 | c.e .e2 | ef e2 | cB A2 | c.e e2 | ef e2 | ec B2 | AB .c2 | %20
 c.e ef | z2 e2- | e2 z2 |] %23
V:2
 x4 | x4 | x4 | x4 | x4 | x4 | x4 | x4 | x4 | x4 | x4 | x4 | x4 | x4 | x4 | x4 | x4 | x4 | x4 | %19
 x4 | x4 | e2 z z/ .=c/ | x4 |] %23
V:3
 .A,A, .C2 | C.E E2 | .EE C2 | C[K:bass]B, A,2 | .A,A, F,2 | A,[K:treble]C E2 | EC A,2- | A,2 z2 | %8
 C.E E2 | CB,[K:bass] A,2 | E,F, A,2 | B,C B,2 | CB, A,2 | z/4 .A,3/4.A, A,2 | E, z/ G,/- [G,A,]2 | %15
 C.E E2 | CB,[K:bass] A,2 | E,F, A,2 | B,C B,2 | (3:2:2C B,2 A,2 | .A,.A, A,2 | E,F,/G,/ A,2- | %22
 A,2 z2 |] %23
V:4
 x4 | x4 | x4 | x[K:bass] x3 | x4 | x[K:treble] x3 | x4 | x4 | x4 | x2[K:bass] x2 | x4 | x4 | x4 | %13
 x4 | z F, z2 | x4 | x2[K:bass] x2 | x4 | x4 | x4 | x4 | x4 | x4 |] %23
V:5
 .A,.A, A,2 | .A,A, .E,2 | .E,E, A,2 | A,F, E,2 | C,E, F,2 | .E,E, A,2 | A,E, [A,,A,]2- | %7
 [A,,A,]2 z2 | .E,E, .A,2 | .A,.A, A,2 | E,F, E,2 | F,.E, E,2 | A,E, E,2 | .A,A, .E,2 | %14
 .E,.E, .[A,,A,]2 | z/8 E,3/8 z/ E, .A,2 | .A,.A, A,2 | E,F, E,2 | F,.E, E,2 | A,.E, E,2 | %20
 .A,.A, .E,2 | .E,E, [A,,A,]2- | [A,,A,]2 z2 |] %23

